X: 15230
T: Girl I Left Behind Me, The
R: polka
M: 2/4
K: Gmajor
|:g|e/d/c/B/ c/B/A/G/|G/A/B/G/ E>F|GG G/A/B/c/|d>c B>g|
e/d/c/B/ c/B/A/G/|G/A/B/G/ EB/A/|G/F/E/D/ E/G/F/A/|G2 G:|
|:c|Bd ef|ge/d/ B>A|Bd e/g/f/g/|e2 g>e|
e/d/c/B/ c/B/A/G/|G/A/B/G/ EB/A/|G/F/E/D/ E/G/F/A/|G2 G:|

